symbols/pl/w32-{80}.svg

<?xml version="1.0" encoding="UTF-8" standalone="no"?>
<svg
   width="23"
   height="23"
   viewBox="0 0 23 23"
   version="1.1"
   id="svg3"
   xmlns="http://www.w3.org/2000/svg"
   xmlns:svg="http://www.w3.org/2000/svg">
  <defs
     id="defs3" />
  <path
     fill-rule="nonzero"
     fill="rgb(100%, 100%, 100%)"
     fill-opacity="1"
     stroke-width="20"
     stroke-linecap="square"
     stroke-linejoin="miter"
     stroke="rgb(0%, 0%, 0%)"
     stroke-opacity="1"
     stroke-miterlimit="5"
     d="M 10.003397 369.996605 L 10.003397 10.003397 L 95.838995 10.003397 L 369.996605 284.161006 L 369.996605 369.996605 Z M 10.003397 369.996605 "
     transform="matrix(0.0605263, 0, 0, 0.0605263, 0, 0)"
     id="path1" />
  <path
     fill="none"
     stroke-width="15"
     stroke-linecap="butt"
     stroke-linejoin="miter"
     stroke="rgb(0%, 0%, 0%)"
     stroke-opacity="1"
     stroke-miterlimit="4"
     d="M 167.476223 280.030572 C 167.476223 292.421876 157.408289 302.489811 145.016984 302.489811 C 132.561142 302.489811 122.493207 292.421876 122.493207 280.030572 L 122.493207 234.983017 C 122.493207 222.591713 132.561142 212.523778 145.016984 212.523778 C 157.408289 212.523778 167.476223 222.591713 167.476223 234.983017 Z M 167.476223 280.030572 "
     transform="matrix(0.0605263, 0, 0, 0.0605263, 0, 0)"
     id="path3" />
  <path
     id="path58"
     style="fill:#000000;fill-opacity:1;stroke:none;stroke-width:0.907599;stroke-miterlimit:5;stroke-dasharray:none;stroke-opacity:1"
     d="m 4.2364059,12.409335 a 1.8152031,1.8152031 0 0 0 -1.8152026,1.815203 1.8152031,1.8152031 0 0 0 0.6160433,1.361401 1.8152031,1.8152031 0 0 0 -0.6160433,1.361403 1.8152031,1.8152031 0 0 0 1.8152026,1.815203 1.8152031,1.8152031 0 0 0 1.8152033,-1.815203 1.8152031,1.8152031 0 0 0 -0.6156891,-1.361047 1.8152031,1.8152031 0 0 0 0.6156891,-1.361757 1.8152031,1.8152031 0 0 0 -1.8152033,-1.815203 z m 0,0.907602 A 0.90760158,0.90760158 0 0 1 5.144008,14.224538 0.90760158,0.90760158 0 0 1 4.2364059,15.13214 0.90760158,0.90760158 0 0 1 3.3288045,14.224538 0.90760158,0.90760158 0 0 1 4.2364059,13.316937 Z m 0,2.722804 A 0.90760158,0.90760158 0 0 1 5.144008,16.947342 0.90760158,0.90760158 0 0 1 4.2364059,17.854943 0.90760158,0.90760158 0 0 1 3.3288045,16.947342 0.90760158,0.90760158 0 0 1 4.2364059,16.039741 Z" />
</svg>

<?xml version="1.0" encoding="UTF-8"?>
<svg xmlns="http://www.w3.org/2000/svg" xmlns:xlink="http://www.w3.org/1999/xlink" width="23" height="23" viewBox="0 0 23 23">
<path fill-rule="nonzero" fill="rgb(100%, 100%, 100%)" fill-opacity="1" stroke-width="20" stroke-linecap="square" stroke-linejoin="miter" stroke="rgb(0%, 0%, 0%)" stroke-opacity="1" stroke-miterlimit="5" d="M 10.003399 369.996698 L 10.003399 10.003399 L 95.839019 10.003399 L 369.996698 284.161079 L 369.996698 369.996698 Z M 10.003399 369.996698 L 10.003399 369.996698 M 10.003399 369.996698 " transform="matrix(0.0605263, 0, 0, 0.0605263, 0, 0)"/>
<path fill="none" stroke-width="15" stroke-linecap="butt" stroke-linejoin="miter" stroke="rgb(0%, 0%, 0%)" stroke-opacity="1" stroke-miterlimit="4" d="M 167.476266 280.030643 C 167.476266 292.42195 157.408329 302.489888 145.017021 302.489888 C 132.561175 302.489888 122.493238 292.42195 122.493238 280.030643 L 122.493238 234.983077 C 122.493238 222.591769 132.561175 212.523832 145.017021 212.523832 C 157.408329 212.523832 167.476266 222.591769 167.476266 234.983077 Z M 167.476266 280.030643 " transform="matrix(0.0605263, 0, 0, 0.0605263, 0, 0)"/>
<path fill-rule="nonzero" fill="rgb(0%, 0%, 0%)" fill-opacity="1" d="M 4.238281 12.410156 C 3.234375 12.410156 2.421875 13.222656 2.421875 14.222656 C 2.421875 14.746094 2.644531 15.242188 3.039062 15.585938 C 2.644531 15.929688 2.421875 16.425781 2.421875 16.949219 C 2.421875 17.949219 3.234375 18.761719 4.238281 18.761719 C 5.238281 18.761719 6.050781 17.949219 6.050781 16.949219 C 6.050781 16.425781 5.828125 15.929688 5.4375 15.585938 C 5.828125 15.242188 6.050781 14.746094 6.050781 14.222656 C 6.050781 13.222656 5.238281 12.410156 4.238281 12.410156 Z M 4.238281 13.316406 C 4.738281 13.316406 5.144531 13.722656 5.144531 14.222656 C 5.144531 14.726562 4.738281 15.132812 4.238281 15.132812 C 3.734375 15.132812 3.328125 14.726562 3.328125 14.222656 C 3.328125 13.722656 3.734375 13.316406 4.238281 13.316406 Z M 4.238281 16.039062 C 4.738281 16.039062 5.144531 16.445312 5.144531 16.949219 C 5.144531 17.449219 4.738281 17.855469 4.238281 17.855469 C 3.734375 17.855469 3.328125 17.449219 3.328125 16.949219 C 3.328125 16.445312 3.734375 16.039062 4.238281 16.039062 Z M 4.238281 16.039062 "/>
</svg>
